X: 9652
T: Daybreak
R: polka
M: 2/4
K: Gmajor
|:AB AG|ED B,D|GF/G/ AB|d2 dc|
BG/A/ BG|ED B,D|GF/G/ AB|AG G2:|
K: Dmaj
|:A2 AB|d2 dA|dA/d/ ef|a2 ag|
f>e fd|Bd Ad|fd ec|d2 dB:|

